outputs/icons/hardware/security_round.svg

<svg xmlns="http://www.w3.org/2000/svg" width="1200" height="1200" fill="none"><g clip-path="url(#a)"><path fill="#000" d="m559.5 68-350 155.5c-36 16-59.5 52-59.5 91.5v235c0 277.5 192 537 450 600 258-63 450-322.5 450-600V315c0-39.5-23.5-75.5-59.5-91.5L640.5 68c-25.5-11.5-55.5-11.5-81 0M600 599.5h350c-26.5 206-164 389.5-350 447V600H250V315l350-155.5z"/></g><defs><clipPath id="a"><path fill="#fff" d="M0 0h1200v1200H0z"/></clipPath></defs></svg>

<svg width="1200" height="1200" viewBox="0 0 1200 1200" fill="none" xmlns="http://www.w3.org/2000/svg"><g clip-path="url(#clip0_238_1268)"><path d="M559.5 68L209.5 223.5C173.5 239.5 150 275.5 150 315V550C150 827.5 342 1087 600 1150C858 1087 1050 827.5 1050 550V315C1050 275.5 1026.5 239.5 990.5 223.5L640.5 68C615 56.5 585 56.5 559.5 68ZM600 599.5H950C923.5 805.5 786 989 600 1046.5V600H250V315L600 159.5V599.5Z" fill="black"/></g><defs><clipPath id="clip0_238_1268"><path width="24" fill="white" d="M0 0H1200V1200H0V0z"/></clipPath></defs></svg>
